images/icons/arrow-down.svg

<svg width="13" height="8" viewBox="0 0 13 8" fill="none" xmlns="http://www.w3.org/2000/svg">
<path d="M7.1 6.825L11.8 2.325C12.1 2.025 12.1 1.525 11.8 1.225C11.5 0.925 11 0.925 10.7 1.225L6.5 5.225L2.3 1.225C2 0.925 1.5 0.925 1.2 1.225C1.1 1.425 1 1.625 1 1.825C1 2.025 1.1 2.225 1.2 2.325L5.9 6.825C6.3 7.125 6.7 7.125 7.1 6.825Z" fill="black"/>
</svg>

<svg width="13" height="8" fill="none" xmlns="http://www.w3.org/2000/svg"><path d="M7.1 6.825l4.7-4.5c.3-.3.3-.8 0-1.1-.3-.3-.8-.3-1.1 0l-4.2 4-4.2-4c-.3-.3-.8-.3-1.1 0-.1.2-.2.4-.2.6 0 .2.1.4.2.5l4.7 4.5c.4.3.8.3 1.2 0z" fill="#000"/></svg>
